X:298
T:Steirer (96.)
C:traditionell
A:Salzkammergut
S:MIDI erhalten von Christian Amon. Nach einer kopie im besitz von Johann Stoeckl eines manuscriptes. Stoeckl(zitiert von Amon): "diese sammlung wurde 1935 im hause der familie Hohenlohe-Schillingfuerst gefunden. Sie wurde von einem der beiden brueder Steinegger 1866 verfasst. Die originale sind im Ausseer Kammerhofmuseum".
M:3/4
L:1/8
K:G
V:1
dB |\
cz cB A2 | Bz BA G2 | gz gf e2 | de fg d2 |\
cz cB A2 | Bz BA G2 | FD FA cF | G4|*
V:2
gd |\
ez ed c2 | dz dc B2 | bz ba g2 | fg ab g2 |\
ez ed c2 | dz dc B2 | AF Ac eA | B4 |*
